Obsidian-SemiLight/actions/22s/format-align-vertical-bottom.svg

<svg viewBox="0 0 22 22" xmlns="http://www.w3.org/2000/svg"><path d="m10 3v1 2 6h-2l3 4 3-4h-2v-5-3-1zm-7 15v1h1 14 1v-1h-1-14z" fill="#4d4d4d"/></svg>

<svg xmlns="http://www.w3.org/2000/svg" viewBox="0 0 22 22">
  <defs id="defs3051">
    <style type="text/css" id="current-color-scheme">
      .ColorScheme-Text {
        color:#4d4d4d;
      }
      </style>
  </defs>
 <path 
    style="fill:currentColor;fill-opacity:1;stroke:none" 
    d="M 10 3 L 10 4 L 10 6 L 10 12 L 8 12 L 11 16 L 14 12 L 12 12 L 12 7 L 12 4 L 12 3 L 10 3 z M 3 18 L 3 19 L 4 19 L 18 19 L 19 19 L 19 18 L 18 18 L 4 18 L 3 18 z "
    class="ColorScheme-Text"
    />  
</svg>
